manual/professional/deepin-screen-recorder/zh_CN/icon/A.svg

<?xml version="1.0" encoding="iso-8859-1"?>
<!-- Generator: Adobe Illustrator 18.0.0, SVG Export Plug-In . SVG Version: 6.00 Build 0)  -->
<!DOCTYPE svg PUBLIC "-//W3C//DTD SVG 1.1//EN" "http://www.w3.org/Graphics/SVG/1.1/DTD/svg11.dtd">
<svg version="1.1" id="&#x56FE;&#x5C42;_1" xmlns="http://www.w3.org/2000/svg" xmlns:xlink="http://www.w3.org/1999/xlink" x="0px"
	 y="0px" viewBox="0 0 20 20" enable-background="new 0 0 20 20" xml:space="preserve">
<g>
	<path opacity="0.1" fill="#FFFFFF" d="M15.7,19.5H4.3c-2.09,0-3.8-1.71-3.8-3.8V4.3c0-2.09,1.71-3.8,3.8-3.8h11.4
		c2.09,0,3.8,1.71,3.8,3.8v11.4C19.5,17.79,17.79,19.5,15.7,19.5z"/>
	<path fill="none" stroke="#CBCBCB" stroke-miterlimit="10" d="M15.5,19.5h-11c-2.209,0-4-1.791-4-4v-11c0-2.209,1.791-4,4-4h11
		c2.209,0,4,1.791,4,4v11C19.5,17.709,17.709,19.5,15.5,19.5z"/>
	<path d="M12.483,14h1.033l-3-9H9.483l-3,9h1.033l0.667-2h3.633L12.483,14z M8.517,11L10,6.55L11.483,11H8.517z"/>
</g>
</svg>

<?xml version="1.0" encoding="UTF-8"?>
<svg width="20px" height="20px" viewBox="0 0 20 20" version="1.1" xmlns="http://www.w3.org/2000/svg" xmlns:xlink="http://www.w3.org/1999/xlink">
    <!-- Generator: Sketch 64 (93537) - https://sketch.com -->
    <title>A</title>
    <desc>Created with Sketch.</desc>
    <g id="页面-1" stroke="none" stroke-width="1" fill="none" fill-rule="evenodd">
        <g id="A">
            <path d="M15.7,19.5 L4.3,19.5 C2.21,19.5 0.5,17.79 0.5,15.7 L0.5,4.3 C0.5,2.21 2.21,0.5 4.3,0.5 L15.7,0.5 C17.79,0.5 19.5,2.21 19.5,4.3 L19.5,15.7 C19.5,17.79 17.79,19.5 15.7,19.5 Z" id="路径" fill="#FFFFFF" fill-rule="nonzero"></path>
            <path d="M15.5,19.5 L4.5,19.5 C2.291,19.5 0.5,17.709 0.5,15.5 L0.5,4.5 C0.5,2.291 2.291,0.5 4.5,0.5 L15.5,0.5 C17.709,0.5 19.5,2.291 19.5,4.5 L19.5,15.5 C19.5,17.709 17.709,19.5 15.5,19.5 Z" id="路径" stroke="#CBCBCB"></path>
            <path d="M12.483,14 L13.516,14 L10.516,5 L9.483,5 L6.483,14 L7.516,14 L8.183,12 L11.816,12 L12.483,14 Z M8.517,11 L10,6.55 L11.483,11 L8.517,11 Z" id="形状" fill="#000000" fill-rule="nonzero"></path>
        </g>
    </g>
</svg>
